X: 19259
T: Ithacan
R: reel
M: 4/4
K: Eminor
E3E- EFGA|B2B2 BAGB|ADED ADED|DEFG AFEF|
EedB AGEF|DdBA GFGA|B3B- BAGB|B2B2 BAGF:|
|:E2eE dEe2-|eeee dEe2|effe f2ef-|fedB ABdg|
[1 e3g edBA|B3d BAGE|A3B AGED|AB (3BBB AG ED:|
[2 eg (3ggg edBA|Bd (3ddd BAGE|AB (3BBB AGED|B,DG2- GGED||

